X: 29012
T: Naysayers
R: reel
M: 4/4
K: Dmixolydian
|:CzDD FDDD|CDDD FGAD|CzDD FDDD|EccE dEcE|
CDDD FDDD|CDDD FGAe|fedc dcAd-|dcAD =F^FAz:|
|:EccE dEEc|EEcE dcAG|Addc dcAd-|dcAD =F^FAD|
EccE dEEc|EEcE dcAe|fedc dcAd-|dcAD =F^FAz:|

